X:1
T:Acht Marienlieder
T:Maria, Maienkönigin
T:Max Reger
T:Text: Guido Görres
T:Maria, Maienkönigin
T:Nr. 4 aus Acht Marienlieder, Op 61 d
T:CPDL - Creative Commons Attribution Non Commercial 3.0
T:CPDL - Creative Commons Attribution Non Commercial 3.0
C:Max Reger
Z:Guido Görres
Z:CPDL - Creative Commons Attribution Non Commercial 3.0
%%score [ 1 2 3 4 ]
L:1/8
Q:1/4=96
M:4/4
K:C
V:1 treble nm="Sopran"
V:2 treble nm="Alt"
V:3 treble-8 nm="Tenor"
V:4 bass nm="Bass"
V:1
!mf!"^Mäßig langsam"!<(! E2 G2 A2!<)! | c2 B2 A2!>(! B2 | G6!>)! AB | c2 e2!f! d2 GA | %4
w: 1.~Ma- ri- a|Mai- en- kö- ni-|gin! Dich _|1.~will der Mai be- *|
 (B2!>(! A2) G2!>)!!p! G2 |"^cresc." A3 B c2 e2 | d3 c B2 cB |!f! A2 f2 e2 c2 | %8
w: grü- * ßen. O|seg- ne sei- nen|1.~An- be- ginn und _|uns zu dei- nen|
[Q:1/4=120]"^poco ritardando"!>(! (d2 c4 B2)!>)! |!p! !fermata!c2 |] %10
w: Fü- * *|ßen.|
V:2
!mf!!<(! C2 D2 D2!<)! | C2 D2 E2!>(! DC | B,2!>)! (D2 CE F2) | E2 ^F2!f! GF E2 | %4
w: 2.~Ma- ri- a,|dir be- feh- len _|wir, was _ _ _|2.~grünt und blüht _ auf|
 (G2!>(! ^F2) D2!>)!!p! D2 |"^cresc." =F2 F2 E2 G2 | A2 A2 ^G2 E2 |!f! F2 AB cB A2 | %8
w: Er- * den; o|lass es ei- ne|2.~Him- mels- zier in|Got- tes _ Gar- * ten|
!>(! (A4 G4)!>)! |!p! !fermata!G2 |] %10
w: wer- *|den.|
V:3
!mf!!<(! G2 G2 F2!<)! | E2 G2 G2!>(! ^F2 | G2!>)! (AB c2 A2) | A2 A2!f! B2 Bc | %4
w: 3.~Be- hü- te|uns mit treu- em|Fleiß, o _ _ _|3.~Kö- ni- gin der _|
 (d3!>(! c) B2!>)!!p! B2 |"^cresc." c2 d2 c2 c2 | f2 f2 B2 A2 |!f! c2 d2 g2 e2 | %8
w: Frau- * en, die|Her- zens- blü- ten|3.~li- lien- weiß auf|grü- nen Mai- es-|
!>(! (f3 e de f2)!>)! |!p! !fermata!e2 |] %10
w: au- * * * *|en.|
V:4
!mf!!<(! C,2 B,,2 D,2!<)! | A,,2 B,,2 C,2!>(! D,2 | G,,2!>)! (=F,2 E,2 D,2) | %3
 A,,2 C,2!f! B,,2 E,2 | (B,,C,!>(! D,2) G,,2!>)!!p! G,2 |"^cresc." F,E, D,2 A,,2 E,2 | %6
 F,2 D,2 E,2 A,,2 |!f! F,E, D,2 E,2 A,G, |!>(! (F,4 G,4)!>)! |!p! !fermata!C,2 |] %10

